static/images/mobile/copyright/wikipedia-wordmark-ta.svg

<?xml version="1.0" encoding="UTF-8"?>
<svg width="118px" height="22px" viewBox="0 0 118 22" version="1.1" xmlns="http://www.w3.org/2000/svg" xmlns:xlink="http://www.w3.org/1999/xlink">
    <title>Combined Shape</title>
    <g id="Page-1" stroke="none" stroke-width="1" fill="none" fill-rule="evenodd">
        <path d="M24.940887,12.5560339 L24.940887,8.82529326 L33.0705408,8.82529326 L33.0705408,9.62149337 L29.7677047,9.62149337 L29.7677047,12.4936917 L31.4545947,12.4936917 C32.6063395,12.4936917 33.4445294,12.731483 33.9696024,13.206175 C34.4946753,13.6817576 34.7569929,14.3256644 34.7569929,15.1387859 C34.7569929,15.8824403 34.5608021,16.4738015 34.1679827,16.9110881 C33.7747253,17.3483747 33.322786,17.6511801 32.8112887,17.8203949 C32.2997914,17.9887191 31.8474141,18.0733265 31.4545947,18.0733265 C30.9124426,18.0733265 30.4232796,18.0100936 29.9862297,17.8818467 C29.5491798,17.7544903 29.1616155,17.5184802 28.8226609,17.174707 C28.585743,17.3813272 28.2809468,17.5897285 27.9082719,17.7999111 C27.535597,18.0100937 27.034172,18.1142944 26.4044348,18.1142944 C25.2934172,18.1142944 24.4482205,17.8426601 23.8688447,17.298501 C23.2899069,16.7543419 23,16.0204841 23,15.0978183 C23,14.3327893 23.2202767,13.7369752 23.66083,13.3094852 C24.1009454,12.8828856 24.527923,12.6317352 24.940887,12.5560339 Z M25.8859308,13.2890011 C25.282907,13.2890011 24.7849854,13.459997 24.3921661,13.8010984 C23.9993467,14.1413092 23.8031559,14.6151105 23.8031559,15.221612 C23.8031559,15.7586463 23.9686918,16.2217604 24.3010775,16.6109544 C24.6325873,17.0001484 25.1475881,17.1951907 25.8456417,17.1951907 C26.6312806,17.1951907 27.2272975,17.0019296 27.6336926,16.616298 C28.0405256,16.2306664 28.2437232,15.6036811 28.2437232,14.7362328 L28.2437232,13.2890011 L25.8859308,13.2890011 L25.8859308,13.2890011 Z M25.7234603,9.62149337 L25.7234603,12.4936917 L28.2437231,12.4936917 L28.2437231,9.62149337 L25.7234603,9.62149337 Z M29.7677048,13.289001 L29.7677048,14.6115482 C29.7677048,15.0800059 29.7151536,15.487012 29.6104894,15.8307852 C29.5053872,16.175449 29.3985333,16.4265994 29.2903656,16.5851269 C29.4186779,16.7712632 29.6442097,16.9369155 29.9660851,17.0811934 C30.2875226,17.2263618 30.6076463,17.2985008 30.9264563,17.2985008 C31.5018908,17.2985008 32.0304672,17.1364108 32.5113096,16.8131215 C32.99259,16.4889416 33.2330113,15.9376577 33.2330113,15.1592697 C33.2330113,14.456583 33.028062,13.9694226 32.6181635,13.6977883 C32.2082649,13.4252634 31.7050883,13.289001 31.1090713,13.289001 L29.7677048,13.289001 L29.7677048,13.289001 Z M28.9141874,5.04378816 C29.1988391,5.04378816 29.4427638,5.14709828 29.6459614,5.35371844 C29.8491589,5.5603386 29.9507578,5.8150514 29.9507578,6.11874739 C29.9507578,6.40106888 29.8491589,6.64509439 29.6459614,6.85171454 C29.4427638,7.0583347 29.1988391,7.16164482 28.9141874,7.16164482 C28.6365425,7.16164482 28.3926178,7.0583347 28.1828514,6.85171454 C27.972647,6.64509439 27.8675448,6.40106888 27.8675448,6.11874739 C27.8675448,5.82930106 27.9691437,5.57726008 28.1723412,5.36440574 C28.3755388,5.15066066 28.6229668,5.04378816 28.9141874,5.04378816 Z M46.6865286,4 C47.899145,4 48.7390866,4.35535101 49.2063534,5.06427193 C49.6740581,5.7740834 49.9074726,6.7350453 49.9074726,7.94715745 L49.9074726,18.0733262 L49.2269359,18.0733262 L49.2269359,8.21611982 C49.2269359,7.45109087 49.049138,6.8054029 48.6931044,6.27816526 C48.3375087,5.75181826 47.675365,5.48819945 46.7066731,5.48819945 C46.0497845,5.48819945 45.527777,5.6583048 45.1419644,5.99940623 C44.7557138,6.34050757 44.5625886,6.75909153 44.5625886,7.25515801 C44.5625886,7.78506747 44.7114834,8.19563596 45.0097109,8.48419174 C45.1514609,8.62176808 45.3107226,8.73600479 45.4875898,8.82690187 L46.2906437,8.82529326 L46.2906437,9.62149337 L42.9878076,9.62149337 L42.9878076,12.4936917 L44.6746976,12.4936917 C45.8264424,12.4936917 46.6646323,12.731483 47.1897052,13.206175 C47.7147782,13.6817576 47.9770958,14.3256644 47.9770958,15.1387859 C47.9770958,15.8824403 47.780905,16.4738015 47.3880856,16.9110881 C46.9948282,17.3483747 46.5428889,17.6511801 46.0313916,17.8203949 C45.5198943,17.9887191 45.067517,18.0733265 44.6746976,18.0733265 C44.1325455,18.0733265 43.6433825,18.0100936 43.2063326,17.8818467 C42.7692826,17.7544903 42.3817184,17.5184802 42.0427638,17.174707 C41.8058459,17.3813272 41.5010496,17.5897285 41.1283748,17.7999111 C40.7556999,18.0100937 40.2542749,18.1142944 39.6245377,18.1142944 C38.5135201,18.1142944 37.6683234,17.8426601 37.0889476,17.298501 C36.5100098,16.7543419 36.2201029,16.0204841 36.2201029,15.0978183 C36.2201029,14.3327893 36.4403796,13.7369752 36.8809329,13.3094852 C37.3210483,12.8828856 37.7480259,12.6317352 38.1609899,12.5560339 L38.1609899,8.82529326 L44.396497,8.82637074 C44.3588159,8.79257554 44.3226536,8.75777986 44.2880092,8.72198314 C43.8816141,8.30250864 43.6784165,7.72005352 43.6784165,6.97550843 C43.6784165,6.21849496 43.9446754,5.53272972 44.4763172,4.91999409 C45.0079591,4.30725845 45.7449882,4 46.6865286,4 Z M44.3291741,13.289001 L42.9878076,13.289001 L42.9878076,14.6115482 C42.9878076,15.0800059 42.9352564,15.487012 42.8305922,15.8307852 C42.72549,16.175449 42.6186361,16.4265994 42.5104684,16.5851269 C42.6387807,16.7712632 42.8643125,16.9369155 43.1861879,17.0811934 C43.5076254,17.2263618 43.8277491,17.2985008 44.1465591,17.2985008 C44.7219936,17.2985008 45.2505699,17.1364108 45.7314124,16.8131215 C46.2126928,16.4889416 46.4531141,15.9376577 46.4531141,15.1592697 C46.4531141,14.456583 46.2481648,13.9694226 45.8382663,13.6977883 C45.4283677,13.4252634 44.9251911,13.289001 44.3291741,13.289001 Z M41.463826,13.2890011 L39.1060336,13.2890011 C38.5030098,13.2890011 38.0050882,13.459997 37.6122689,13.8010984 C37.2194495,14.1413092 37.0232587,14.6151105 37.0232587,15.221612 C37.0232587,15.7586463 37.1887946,16.2217604 37.5211803,16.6109544 C37.8526901,17.0001484 38.3676909,17.1951907 39.0657445,17.1951907 C39.8513834,17.1951907 40.4474002,17.0019296 40.8537954,16.616298 C41.2606284,16.2306664 41.463826,15.6036811 41.463826,14.7362328 L41.463826,13.2890011 Z M41.463826,9.62149337 L38.9435632,9.62149337 L38.9435632,12.4936917 L41.463826,12.4936917 L41.463826,9.62149337 Z M52.2954817,18.0733264 L52.2954817,8.82529326 L53.8194634,8.82529326 L53.8194634,17.2780169 L60.1606284,17.2780169 L60.1606284,8.82529326 L61.6846101,8.82529326 L61.6846101,18.0733264 L52.2954817,18.0733264 L52.2954817,18.0733264 Z M56.1768177,5.04378816 C56.4614694,5.04378816 56.7053941,5.14709828 56.9085917,5.35371844 C57.1117892,5.5603386 57.213388,5.8150514 57.213388,6.11874739 C57.213388,6.40106888 57.1117892,6.64509439 56.9085917,6.85171454 C56.7053941,7.0583347 56.4614694,7.16164482 56.1768177,7.16164482 C55.8991728,7.16164482 55.6552481,7.0583347 55.4454817,6.85171454 C55.2352773,6.64509439 55.1301751,6.40106888 55.1301751,6.11874739 C55.1301751,5.82930106 55.2317739,5.57726008 55.4349715,5.36440574 C55.638169,5.15066066 55.8855971,5.04378816 56.1768177,5.04378816 Z M71.5309328,4.02048395 C72.4715973,4.02048395 73.1705268,4.23244775 73.6242179,4.65637527 C74.077909,5.08030278 74.3056304,5.56746325 74.3056304,6.11874721 C74.3056304,6.73148284 74.1322118,7.20706546 73.7871263,7.54460443 C73.440289,7.8821434 72.9463088,8.05046757 72.3034338,8.05046757 C71.8567495,8.05046757 71.47663,7.89906489 71.1648268,7.59625945 C70.8530236,7.29256345 70.697122,6.92385333 70.697122,6.49012916 C70.697122,6.22205733 70.7356596,6.01009353 70.809231,5.85512839 C70.8845543,5.70016325 70.9791462,5.5772599 71.093007,5.48819945 C70.7076323,5.54341692 70.3765604,5.72420957 70.1032948,6.03057739 C69.8282774,6.3369452 69.6916445,6.72079554 69.6916445,7.18301914 C69.6916445,7.73341246 69.9141108,8.16980854 70.3572917,8.48953539 C70.7652152,8.78464609 71.1493936,8.96431269 71.5098267,9.02853525 L71.5099124,8.82529326 L73.0356458,8.82529326 L73.0356458,18.0733264 L63.6456416,18.0733264 L63.6456416,8.82529326 L65.1696233,8.82529326 L65.1696233,17.2780169 L71.5099124,17.2780169 L71.509,9.557 L71.3240324,9.53368511 C70.5973616,9.42082151 70.0032532,9.1762902 69.5392464,8.79946567 C69.0172389,8.3764287 68.7562352,7.72717826 68.7562352,6.85171445 C68.7562352,6.21849496 69.0137355,5.5879472 69.5287362,4.9609619 C70.0437368,4.3339766 70.7111358,4.02048395 71.5309328,4.02048395 Z M72.3034339,5.5710258 C72.0459335,5.5710258 71.8339775,5.65830498 71.6675657,5.83375398 C71.5011538,6.01009362 71.4188238,6.22829161 71.4188238,6.49012925 C71.4188238,6.76621655 71.5029055,6.98619573 71.6728207,7.15184807 C71.8427359,7.31660987 72.0529402,7.39943604 72.3034338,7.39943604 C72.5399137,7.39943604 72.744863,7.3085944 72.9182816,7.12602056 C73.0899485,6.94344673 73.1775336,6.7243581 73.1775336,6.4696453 C73.1775336,6.22829161 73.0881968,6.018109 72.9130265,5.83909754 C72.7361046,5.66008626 72.532907,5.5710258 72.3034339,5.5710258 Z M81.6084804,21.9991094 L80.107271,22 L81.7503684,18.0733264 L75.0676212,18.0733264 L75.0676212,8.82529326 L76.6213819,8.82529326 L76.6213819,17.2780169 L80.5942444,17.2780169 C80.1212845,17.0090545 79.6553315,16.5388155 79.1981371,15.8673 C78.7409426,15.1957845 78.5114695,14.3844441 78.5114695,13.4341695 C78.5114695,12.1454654 78.8040039,11.1747069 79.3908244,10.5201129 C79.9758933,9.86551887 80.6888364,9.53866711 81.5296538,9.53866711 C82.484332,9.53866711 83.2936188,9.8209886 83.959266,10.3856316 C84.6214098,10.9502746 84.9542333,11.7731928 84.9542333,12.8543862 C84.9542333,13.2961259 84.8981788,13.7538964 84.7860698,14.229479 C84.6739608,14.704171 84.4882803,15.2314086 84.23078,15.8094107 L83.5949117,17.2789075 L86,17.2780169 L86,18.0733263 L83.2620881,18.0751075 L81.6084804,21.9991094 Z M83.3163909,14.3221018 C83.3969693,14.1297313 83.4652857,13.9026273 83.5213402,13.6407897 C83.575643,13.3789521 83.6019186,13.1242393 83.6019186,12.8757607 C83.6019186,12.193558 83.4197414,11.6208995 83.0536355,11.1551135 C82.6875296,10.6902182 82.1024608,10.4577706 81.2966774,10.4577706 C80.7606562,10.4577706 80.2947032,10.7187175 79.8988183,11.239721 C79.5029333,11.7607244 79.3049909,12.5328782 79.3049909,13.5544011 C79.3049909,14.2588689 79.4766579,14.8867448 79.8199917,15.4389194 C80.1633255,15.991094 80.5592104,16.4265994 81.0041429,16.7436545 C81.4490755,17.0616001 81.811678,17.2370491 82.0954539,17.2717828 L83.3163909,14.3221018 Z M17.5093444,1.77635684e-15 C19.2000319,1.77635684e-15 20.3707441,0.476677816 21.0223588,1.43003354 C21.6739734,2.38424963 22,3.67575401 22,5.30540715 L22,18.9165384 L21.0508806,18.9165384 L21.0508806,5.6667875 C21.0508806,4.63857446 20.8029599,3.77040126 20.3071185,3.06226797 C19.8112771,2.35413468 18.8880467,1.99963776 17.5374274,1.99963776 C16.6216566,1.99963776 15.89413,2.2293724 15.3561641,2.68712075 C14.8177593,3.14572956 14.5487763,3.70845035 14.5487763,4.37442266 C14.5487763,5.08771854 14.7563276,5.6383933 15.171869,6.02730739 C15.5069228,6.34089128 15.9127247,6.56441317 16.388815,6.69742214 L16.3904104,6.48591612 L18.5150687,6.48591612 L18.5150687,18.9165383 L9.15156466,18.9165383 L9.15156466,18.2918666 C10.0015158,17.5785707 10.6105671,16.8497871 10.9787183,16.1037949 C11.3473084,15.3586632 11.5311646,14.3330314 11.5311646,13.0277602 C11.5311646,11.5461009 11.1156232,10.2640612 10.2845403,9.18078076 C9.45345748,8.09663978 8.14540155,7.55542976 6.36081135,7.55542976 C4.92506523,7.55542976 3.68326778,8.04587444 2.63498008,9.02762428 C1.58669239,10.0093741 1.06276795,11.1623494 1.06276795,12.4856897 L1.06276795,13.1662892 C1.11937287,12.7687709 1.38001864,12.3265102 1.84470546,11.8403677 C2.30939227,11.3542251 3.00181503,11.1107236 3.921535,11.1107236 C5.07820576,11.1107236 6.04092785,11.4376868 6.80926265,12.0898922 C7.57715863,12.742958 7.96154544,13.6756634 7.96154544,14.8888687 C7.96154544,16.0650755 7.65219305,17.0442441 7.03348835,17.8263744 C6.41478365,18.6085046 5.51086037,19 4.32084096,19 C3.63148982,19 2.96539486,18.8193099 2.3234338,18.4579295 C1.68103392,18.0974096 1.13341439,17.4495063 0.680136399,16.5133592 C0.226858404,15.578933 -7.10542736e-15,14.3097997 -7.10542736e-15,12.7085408 C-7.10542736e-15,10.9954261 0.639767078,9.5068833 1.91973996,8.24291266 C3.19927403,6.97894201 4.77411896,6.34738688 6.64383595,6.34738688 C8.57981141,6.34738688 10.2419771,6.8885969 11.630333,7.97187741 C13.0186888,9.05515793 13.7128668,10.7218095 13.7128668,12.9718321 C13.7128668,14.0645774 13.4811817,15.085907 13.0186889,16.0349605 C12.5557574,16.984014 12.1165208,17.5880354 11.7014182,17.8470246 L16.3904104,17.8470246 L16.3891,7.41797345 C15.414031,7.20911088 14.6728366,6.85224873 14.1661447,6.34738705 C13.5996569,5.78208496 13.3161936,4.99995473 13.3161936,4.00013589 C13.3161936,2.98138759 13.6869777,2.05986783 14.428107,1.23557653 C15.1696751,0.412145695 16.1969005,1.77635684e-15 17.5093444,1.77635684e-15 Z M3.66922607,12.4994566 C3.53670929,12.4994566 3.39980437,12.5140839 3.25851156,12.5416176 C2.71045322,12.6620778 2.30675938,12.951182 2.04699115,13.4097908 C1.78722291,13.8675393 1.65733874,14.3889594 1.65733874,14.9723305 C1.65733874,15.1848565 1.69507536,15.5367721 1.77098731,16.0272168 C1.84646054,16.5185219 2.11324954,16.9513178 2.57135431,17.326465 C3.02902027,17.7016123 3.48010437,17.8891858 3.92416762,17.8891858 C4.00929441,17.8891858 4.19797738,17.8607916 4.49065546,17.8057242 C4.78333353,17.7497962 5.0760116,17.5002717 5.36912848,17.0554298 C5.66180655,16.6105879 5.80836495,16.07368 5.80836495,15.4447061 C5.80836495,15.1762522 5.77984308,14.9026356 5.72323816,14.624717 C5.63811137,14.0508106 5.41607975,13.5534825 5.05758201,13.1318722 C4.69820674,12.7102618 4.23571391,12.4994566 3.66922607,12.4994566 Z M94.1204304,17.9417684 L94.1204304,15.8024258 C93.8965757,16.3999725 93.5234845,16.9150989 93.0002892,17.348701 C92.4770939,17.783199 91.8280889,18 91.0541416,18 C90.1196784,18 89.4246876,17.6891324 88.9665664,17.0673971 C88.5093128,16.4456619 88.2151782,15.7253807 88.0850301,14.9047619 C88.0563974,14.539246 88.0277649,14.1728343 88,13.8064227 L88,5 L89.0793615,5 L89.0793615,13.8350906 C89.0975822,14.5293914 89.2138478,15.2219007 89.429026,15.9099304 C89.6433364,16.5997519 90.24115,16.9437668 91.2215988,16.9437668 C91.8280889,16.9437668 92.3486812,16.655296 92.7833758,16.0765626 C93.2180704,15.4978292 93.5651319,14.8330921 93.8271634,14.0805595 C93.9200024,13.7437116 94.0180473,13.4068637 94.1204304,13.0682241 L94.1204304,5 L96.2218881,5 L96.2218881,16.8290953 L103.532739,16.8290953 L103.532739,5 L105.633329,5 L105.633329,17.9417684 L94.1204304,17.9417684 Z M115.072536,17.9417684 L112.971946,17.9417684 L112.971946,6.11267321 L109.498727,6.11267321 L109.498727,17.9417684 L108.420234,17.9417684 L108.420234,5.00000009 L118,5.00000009 L118,6.11267321 L115.072536,6.11267321 L115.072536,17.9417684 Z" id="Combined-Shape" fill="#010101" fill-rule="nonzero"></path>
    </g>
</svg>

<svg xmlns="http://www.w3.org/2000/svg" width="118" height="22"><path fill="#010101" fill-rule="nonzero" d="M24.94 12.556v-3.73h8.13v.795h-3.302v2.873h1.687c1.151 0 1.99.237 2.515.712.525.476.787 1.12.787 1.933 0 .743-.196 1.335-.589 1.772-.393.437-.845.74-1.357.91-.511.168-.964.252-1.356.252a5.209 5.209 0 0 1-1.469-.191 2.663 2.663 0 0 1-1.163-.707 5.532 5.532 0 0 1-.915.625c-.372.21-.874.314-1.504.314-1.11 0-1.956-.271-2.535-.815-.58-.545-.869-1.279-.869-2.201 0-.765.22-1.361.66-1.789.44-.426.868-.677 1.28-.753Zm.946.733c-.603 0-1.101.171-1.494.512-.393.34-.589.814-.589 1.42 0 .538.166 1 .498 1.39.332.39.847.584 1.545.584.785 0 1.381-.193 1.788-.579.407-.385.61-1.012.61-1.88V13.29h-2.358Zm-.163-3.668v2.873h2.52V9.62h-2.52Zm4.045 3.668v1.323c0 .468-.053.875-.158 1.219-.105.344-.211.596-.32.754.129.186.354.352.676.496.322.145.642.218.96.218.576 0 1.104-.163 1.585-.486.482-.324.722-.875.722-1.654 0-.702-.205-1.19-.615-1.461-.41-.273-.913-.409-1.509-.409h-1.341Zm-.854-8.245a.99.99 0 0 1 .732.31c.203.206.305.461.305.765 0 .282-.102.526-.305.733a.99.99 0 0 1-.732.31 1.01 1.01 0 0 1-.731-.31.993.993 0 0 1-.315-.733c0-.29.101-.542.304-.755a.985.985 0 0 1 .742-.32ZM46.687 4c1.212 0 2.052.355 2.52 1.064.467.71.7 1.671.7 2.883v10.126h-.68V8.216c0-.765-.178-1.41-.534-1.938-.355-.526-1.018-.79-1.986-.79-.657 0-1.18.17-1.565.511-.386.342-.58.76-.58 1.256 0 .53.15.94.448 1.23.141.137.3.251.478.342l.803-.002v.796h-3.303v2.873h1.687c1.151 0 1.99.237 2.515.712.525.476.787 1.12.787 1.933 0 .743-.196 1.335-.589 1.772-.393.437-.845.74-1.357.91-.511.168-.963.252-1.356.252a5.209 5.209 0 0 1-1.469-.191 2.663 2.663 0 0 1-1.163-.707 5.532 5.532 0 0 1-.915.625c-.372.21-.874.314-1.503.314-1.111 0-1.957-.271-2.536-.815-.579-.545-.869-1.279-.869-2.201 0-.765.22-1.361.66-1.789.441-.426.868-.677 1.281-.753v-3.73h6.235a2.13 2.13 0 0 1-.108-.104c-.406-.42-.61-1.002-.61-1.746 0-.758.267-1.443.798-2.056.532-.613 1.269-.92 2.21-.92Zm-2.358 9.289h-1.341v1.323c0 .468-.053.875-.157 1.219-.106.344-.212.596-.32.754.128.186.353.352.675.496.322.145.642.218.96.218.576 0 1.105-.163 1.585-.486.482-.324.722-.875.722-1.654 0-.702-.205-1.19-.615-1.461-.41-.273-.913-.409-1.509-.409Zm-2.865 0h-2.358c-.603 0-1.1.171-1.494.512-.393.34-.589.814-.589 1.42 0 .538.166 1 .498 1.39.332.39.847.584 1.545.584.785 0 1.381-.193 1.788-.579.407-.385.61-1.012.61-1.88V13.29Zm0-3.668h-2.52v2.873h2.52V9.62Zm10.831 8.452V8.825h1.524v8.453h6.342V8.825h1.524v9.248h-9.39Zm3.882-13.03a.99.99 0 0 1 .732.31c.203.207.304.462.304.766 0 .282-.101.526-.304.733a.99.99 0 0 1-.732.31 1.01 1.01 0 0 1-.732-.31.993.993 0 0 1-.315-.733c0-.29.102-.542.305-.755a.985.985 0 0 1 .742-.32ZM71.53 4.02c.94 0 1.64.212 2.093.636.454.424.682.911.682 1.463 0 .612-.174 1.088-.519 1.426-.347.337-.84.505-1.484.505-.446 0-.826-.15-1.138-.454a1.486 1.486 0 0 1-.468-1.106c0-.268.039-.48.112-.635.076-.155.17-.278.284-.367a1.6 1.6 0 0 0-.99.543c-.275.306-.411.69-.411 1.152 0 .55.222.987.665 1.307.408.295.792.474 1.153.539v-.204h1.526v9.248h-9.39V8.825h1.524v8.453h6.34l-.001-7.721-.185-.023c-.727-.113-1.32-.358-1.785-.735-.522-.423-.783-1.072-.783-1.947 0-.634.258-1.264.773-1.891s1.182-.94 2.002-.94Zm.772 1.551a.838.838 0 0 0-.635.263.918.918 0 0 0-.25.656c0 .276.085.496.255.662a.87.87 0 0 0 .63.247.82.82 0 0 0 .615-.273.927.927 0 0 0 .26-.656.874.874 0 0 0-.265-.63.833.833 0 0 0-.61-.269Zm9.305 16.428-1.5.001 1.642-3.927h-6.682V8.825h1.553v8.453h3.973c-.473-.269-.939-.74-1.396-1.41-.457-.672-.687-1.484-.687-2.434 0-1.289.293-2.26.88-2.914.585-.654 1.298-.981 2.139-.981.954 0 1.764.282 2.43.847.661.564.994 1.387.994 2.468 0 .442-.056.9-.168 1.375a9.065 9.065 0 0 1-.555 1.58l-.636 1.47L86 17.278v.795l-2.738.002L81.608 22Zm1.708-7.677c.081-.192.15-.42.205-.681.055-.262.08-.517.08-.765 0-.682-.181-1.255-.547-1.72-.366-.466-.952-.698-1.757-.698-.536 0-1.002.26-1.398.782-.396.52-.594 1.293-.594 2.314 0 .705.172 1.333.515 1.885s.74.988 1.184 1.305c.445.318.808.493 1.091.528l1.221-2.95ZM17.51 0c1.691 0 2.862.477 3.513 1.43.652.954.978 2.246.978 3.875v13.612h-.95V5.667c0-1.028-.247-1.897-.743-2.605S18.888 2 17.537 2c-.915 0-1.643.23-2.18.687-.54.459-.808 1.021-.808 1.687 0 .714.207 1.264.623 1.653.335.314.74.537 1.217.67l.001-.211h2.125v12.43H9.152v-.624c.85-.713 1.459-1.442 1.827-2.188.368-.745.552-1.771.552-3.076 0-1.482-.415-2.764-1.246-3.847-.832-1.084-2.14-1.626-3.924-1.626-1.436 0-2.678.49-3.726 1.473-1.048.981-1.572 2.134-1.572 3.458v.68c.056-.397.317-.84.782-1.326.464-.486 1.157-.73 2.077-.73 1.156 0 2.119.328 2.887.98.768.653 1.153 1.586 1.153 2.799 0 1.176-.31 2.155-.929 2.937C6.415 18.61 5.511 19 4.321 19a4.02 4.02 0 0 1-1.998-.542c-.642-.36-1.19-1.008-1.643-1.945C.227 15.58 0 14.31 0 12.71c0-1.714.64-3.202 1.92-4.466C3.2 6.979 4.774 6.347 6.644 6.347c1.936 0 3.598.542 4.986 1.625 1.389 1.083 2.083 2.75 2.083 5a6.9 6.9 0 0 1-.694 3.063c-.463.949-.902 1.553-1.318 1.812h4.69l-.002-10.429c-.975-.209-1.716-.566-2.223-1.07C13.6 5.781 13.316 5 13.316 4c0-1.019.371-1.94 1.112-2.764C15.17.412 16.197 0 17.51 0ZM3.67 12.5c-.132 0-.27.014-.41.042-.549.12-.952.41-1.212.868s-.39.979-.39 1.562c0 .213.038.565.114 1.055.075.492.342.924.8 1.3.458.375.91.562 1.353.562.085 0 .274-.028.567-.083.292-.056.585-.306.878-.75.293-.445.44-.982.44-1.611 0-.269-.03-.542-.086-.82a2.915 2.915 0 0 0-.665-1.493c-.36-.422-.822-.633-1.389-.633Zm90.451 5.442v-2.14A3.652 3.652 0 0 1 93 17.35c-.523.434-1.172.651-1.946.651-.934 0-1.63-.31-2.087-.933a4.879 4.879 0 0 1-.882-2.162L88 13.806V5h1.08v8.835c.018.694.134 1.387.349 2.075.214.69.812 1.034 1.793 1.034.606 0 1.127-.289 1.561-.867a7.28 7.28 0 0 0 1.044-1.996c.093-.337.191-.674.293-1.013V5h2.102v11.83h7.31V5h2.101v12.942H94.12Zm20.953 0h-2.101V6.112h-3.473v11.83h-1.079V5H118v1.113h-2.927v11.829Z"/></svg>
